sources/design/Outline/l.svg

<svg:svg xmlns:cc="http://creativecommons.org/ns#" xmlns:dc="http://purl.org/dc/elements/1.1/" xmlns:inkscape="http://www.inkscape.org/namespaces/inkscape" xmlns:rdf="http://www.w3.org/1999/02/22-rdf-syntax-ns#" xmlns:sodipodi="http://sodipodi.sourceforge.net/DTD/sodipodi-0.dtd" xmlns:svg="http://www.w3.org/2000/svg" xml:space="preserve" width="1000" height="1000" version="1.1" style="clip-rule:evenodd;fill-rule:evenodd;image-rendering:optimizeQuality;shape-rendering:geometricPrecision;text-rendering:geometricPrecision" viewBox="0 0 1000 1000" id="svg10" sodipodi:docname="l.svg" inkscape:version="1.1.1 (3bf5ae0d25, 2021-09-20)"><svg:metadata id="metadata14"><rdf:RDF><cc:Work rdf:about=""><dc:format>image/svg+xml</dc:format><dc:type rdf:resource="http://purl.org/dc/dcmitype/StillImage" /></cc:Work></rdf:RDF></svg:metadata><sodipodi:namedview pagecolor="#ffffff" bordercolor="#666666" borderopacity="1" objecttolerance="10" gridtolerance="10" guidetolerance="10" inkscape:pageopacity="0" inkscape:pageshadow="2" inkscape:window-width="1920" inkscape:window-height="1009" id="namedview12" showgrid="false" inkscape:zoom="0.84890884" inkscape:cx="157.2607" inkscape:cy="447.63346" inkscape:window-x="0" inkscape:window-y="0" inkscape:window-maximized="1" inkscape:current-layer="svg10" showguides="true" inkscape:guide-bbox="true" inkscape:document-rotation="0" inkscape:pagecheckerboard="0"><sodipodi:guide position="0,1000" orientation="0,1" id="guide16" inkscape:label="" inkscape:locked="true" inkscape:color="rgb(0,0,255)" /><sodipodi:guide position="1763.3122,2036.1693" orientation="1000,0" id="guide18" /><sodipodi:guide position="0,200" orientation="0,1" id="guide20" inkscape:label="base" inkscape:locked="true" inkscape:color="rgb(0,0,255)" /><inkscape:grid type="xygrid" id="grid24" originx="-473.37552" originy="-489.69235" /><sodipodi:guide position="0,0" orientation="0,1" id="guide34" inkscape:label="bottom" inkscape:locked="true" inkscape:color="rgb(0,0,255)" /><sodipodi:guide position="225.05109,1693.3186" orientation="0,1" id="guide44" inkscape:label="" inkscape:locked="false" inkscape:color="rgb(0,0,255)" /><sodipodi:guide position="0,900" orientation="0,1" id="guide46" inkscape:label="" inkscape:locked="true" inkscape:color="rgb(0,0,255)" /><sodipodi:guide position="152.97038,570.88972" orientation="1,0" id="guide841" inkscape:label="width" />    <sodipodi:guide position="312.16544,800.92091" orientation="0,-1" id="guide848" /></sodipodi:namedview>
 <svg:defs id="defs4"><inkscape:path-effect effect="fillet_chamfer" id="path-effect852" is_visible="true" lpeversion="1" satellites_param="F,0,0,1,0,23.942857,0,1 @ F,0,0,1,0,0,0,1 @ F,0,0,1,0,0,0,1 @ F,0,0,1,0,27.668319,0,1 @ F,0,0,1,0,18.774251,0,1 @ F,0,0,1,0,0,0,1 @ F,0,0,1,0,0,0,1 @ F,0,0,1,0,23.160476,0,1" unit="px" method="auto" mode="F" radius="0" chamfer_steps="1" flexible="false" use_knot_distance="true" apply_no_radius="true" apply_with_radius="true" only_selected="true" hide_knots="false" /><inkscape:path-effect effect="spiro" id="path-effect850" is_visible="true" lpeversion="1" /><inkscape:path-effect effect="spiro" id="path-effect849" is_visible="true" lpeversion="1" /><inkscape:path-effect effect="spiro" id="path-effect851" is_visible="true" lpeversion="1" />
  <svg:style type="text/css" id="style2">
   
    .fil0 {fill:#EF7F1A;fill-rule:nonzero}
   
  </svg:style>
 <inkscape:path-effect effect="spiro" id="path-effect1214" is_visible="true" lpeversion="1" /><inkscape:path-effect effect="spiro" id="path-effect1195" is_visible="true" lpeversion="1" /><inkscape:path-effect effect="spiro" id="path-effect992" is_visible="true" lpeversion="1" /><inkscape:path-effect effect="spiro" id="path-effect1060" is_visible="true" lpeversion="1" /><inkscape:path-effect effect="spiro" id="path-effect1047" is_visible="true" lpeversion="1" /><inkscape:path-effect effect="spiro" id="path-effect1085" is_visible="true" lpeversion="1" /><inkscape:path-effect effect="spiro" id="path-effect1286" is_visible="true" lpeversion="1" /></svg:defs>
 
<svg:g id="path847"><svg:path style="color:#000000;clip-rule:nonzero;fill:#1a5fb4;fill-rule:nonzero;stroke-linecap:round;stroke-linejoin:round;-inkscape-stroke:none;paint-order:fill stroke markers;shape-rendering:auto" d="M 106.21289,-32.341797 C 102.86619,-32.343397 99.547765,-31.991113 96.349609,-31.291016 L 36.386719,-18.166016 C 5.6200686,-11.430988 -13.975267,18.697166 -8.8574219,49.236328 C -4.9949076,72.28469 -1.9783645,95.475167 0.18164062,118.74414 C 17.123892,301.25704 -19.501585,489.67281 -15.328125,683.00586 C -14.591888,717.11162 -12.547562,751.1878899999999 -9.203125,785.13672 C -7.760194,799.7836699999999 0.30417424000000004,813.95067 12.693359000000001,822.05664 C 25.082545000000003,830.16261 41.054532,831.87338 54.982422,827.54687 L 125.96484,805.49805 C 153.64731,796.89887 169.37312,768.53776 162.94335999999998,740.7168 C 157.72483999999997,718.13674 153.28988999999999,695.3748 149.64648,672.48828 C 121.56045999999999,496.06227 140.98593,312.76515 148.17578,127.55858999999998 C 149.65666000000002,89.41202999999999 150.58610000000002,51.243729999999985 150.96289000000002,13.070312999999985 C 151.09248000000002,-0.05825470000001509 145.30831,-13.947500000000016 134.58594000000002,-22.634766000000013 C 126.54416000000002,-29.150215000000014 116.25301000000002,-32.337091000000015 106.21289000000002,-32.341797000000014 L 106.21289,-32.341797 M 90.640625,31.378906 C 90.179997,62.670893 89.434697,93.958675 88.220703,125.23047 C 81.138487,307.6644 60.636586,495.00573999999995 90.392578,681.92187 C 94.008368,704.63493 98.427816,727.21409 103.50781,749.64453 L 49.49218700000001,766.4238300000001 C 47.002794,738.2431 45.268751,709.99419 44.658203,681.71094 C 40.672041,497.05432 77.92742,307.14556 59.923828,113.19922 C 57.654636,88.754015 54.48207,64.393104 50.445312,40.177734 L 90.640625,31.378906" id="path26493" /></svg:g></svg:svg>

<svg:svg xmlns:cc="http://creativecommons.org/ns#" xmlns:dc="http://purl.org/dc/elements/1.1/" xmlns:inkscape="http://www.inkscape.org/namespaces/inkscape" xmlns:rdf="http://www.w3.org/1999/02/22-rdf-syntax-ns#" xmlns:sodipodi="http://sodipodi.sourceforge.net/DTD/sodipodi-0.dtd" xmlns:svg="http://www.w3.org/2000/svg" xml:space="preserve" width="1000" height="1000" version="1.1" style="clip-rule:evenodd;fill-rule:evenodd;image-rendering:optimizeQuality;shape-rendering:geometricPrecision;text-rendering:geometricPrecision" viewBox="0 0 1000 1000" id="svg10" sodipodi:docname="l.svg" inkscape:version="1.1.1 (3bf5ae0d25, 2021-09-20)"><svg:metadata id="metadata14"><rdf:RDF><cc:Work rdf:about=""><dc:format>image/svg+xml</dc:format><dc:type rdf:resource="http://purl.org/dc/dcmitype/StillImage" /></cc:Work></rdf:RDF></svg:metadata><sodipodi:namedview pagecolor="#ffffff" bordercolor="#666666" borderopacity="1" objecttolerance="10" gridtolerance="10" guidetolerance="10" inkscape:pageopacity="0" inkscape:pageshadow="2" inkscape:window-width="1920" inkscape:window-height="1009" id="namedview12" showgrid="false" inkscape:zoom="0.84890884" inkscape:cx="157.2607" inkscape:cy="447.63346" inkscape:window-x="0" inkscape:window-y="0" inkscape:window-maximized="1" inkscape:current-layer="svg10" showguides="true" inkscape:guide-bbox="true" inkscape:document-rotation="0" inkscape:pagecheckerboard="0"><sodipodi:guide position="0,1000" orientation="0,1" id="guide16" inkscape:label="" inkscape:locked="true" inkscape:color="rgb(0,0,255)" /><sodipodi:guide position="1763.3122,2036.1693" orientation="1000,0" id="guide18" /><sodipodi:guide position="0,200" orientation="0,1" id="guide20" inkscape:label="base" inkscape:locked="true" inkscape:color="rgb(0,0,255)" /><inkscape:grid type="xygrid" id="grid24" originx="-473.37552" originy="-489.69235" /><sodipodi:guide position="0,0" orientation="0,1" id="guide34" inkscape:label="bottom" inkscape:locked="true" inkscape:color="rgb(0,0,255)" /><sodipodi:guide position="225.05109,1693.3186" orientation="0,1" id="guide44" inkscape:label="" inkscape:locked="false" inkscape:color="rgb(0,0,255)" /><sodipodi:guide position="0,900" orientation="0,1" id="guide46" inkscape:label="" inkscape:locked="true" inkscape:color="rgb(0,0,255)" /><sodipodi:guide position="152.97038,570.88972" orientation="1,0" id="guide841" inkscape:label="width" />    <sodipodi:guide position="312.16544,800.92091" orientation="0,-1" id="guide848" /></sodipodi:namedview>
 <svg:defs id="defs4"><inkscape:path-effect effect="fillet_chamfer" id="path-effect852" is_visible="true" lpeversion="1" satellites_param="F,0,0,1,0,23.942857,0,1 @ F,0,0,1,0,0,0,1 @ F,0,0,1,0,0,0,1 @ F,0,0,1,0,27.668319,0,1 @ F,0,0,1,0,18.774251,0,1 @ F,0,0,1,0,0,0,1 @ F,0,0,1,0,0,0,1 @ F,0,0,1,0,23.160476,0,1" unit="px" method="auto" mode="F" radius="0" chamfer_steps="1" flexible="false" use_knot_distance="true" apply_no_radius="true" apply_with_radius="true" only_selected="true" hide_knots="false" /><inkscape:path-effect effect="spiro" id="path-effect850" is_visible="true" lpeversion="1" /><inkscape:path-effect effect="spiro" id="path-effect849" is_visible="true" lpeversion="1" /><inkscape:path-effect effect="spiro" id="path-effect851" is_visible="true" lpeversion="1" />
  <svg:style type="text/css" id="style2">
   
    .fil0 {fill:#EF7F1A;fill-rule:nonzero}
   
  </svg:style>
 <inkscape:path-effect effect="spiro" id="path-effect1214" is_visible="true" lpeversion="1" /><inkscape:path-effect effect="spiro" id="path-effect1195" is_visible="true" lpeversion="1" /><inkscape:path-effect effect="spiro" id="path-effect992" is_visible="true" lpeversion="1" /><inkscape:path-effect effect="spiro" id="path-effect1060" is_visible="true" lpeversion="1" /><inkscape:path-effect effect="spiro" id="path-effect1047" is_visible="true" lpeversion="1" /><inkscape:path-effect effect="spiro" id="path-effect1085" is_visible="true" lpeversion="1" /><inkscape:path-effect effect="spiro" id="path-effect1286" is_visible="true" lpeversion="1" /></svg:defs>
 
<svg:g id="path847"><svg:path style="color:#000000;clip-rule:nonzero;fill:#1a5fb4;fill-rule:nonzero;stroke-linecap:round;stroke-linejoin:round;-inkscape-stroke:none;shape-rendering:auto" d="m 106.21289,-32.341797 c -3.3467,-0.0016 -6.665125,0.350684 -9.863281,1.050781 l -59.96289,13.125 C 5.6200686,-11.430988 -13.975267,18.697166 -8.8574219,49.236328 -4.9949076,72.28469 -1.9783645,95.475167 0.18164062,118.74414 17.123892,301.25704 -19.501585,489.67281 -15.328125,683.00586 c 0.736237,34.10576 2.780563,68.18203 6.125,102.13086 1.442931,14.64695 9.50729924,28.81395 21.896484,36.91992 12.389186,8.10597 28.361173,9.81674 42.289063,5.49023 l 70.982418,-22.04882 c 27.68247,-8.59918 43.40828,-36.96029 36.97852,-64.78125 -5.21852,-22.58006 -9.65347,-45.342 -13.29688,-68.22852 -28.08602,-176.42601 -8.66055,-359.72313 -1.4707,-544.92969 1.48088,-38.14656 2.41032,-76.31486 2.78711,-114.488277 0.12959,-13.1285677 -5.65458,-27.017813 -16.37695,-35.705079 -8.04178,-6.515449 -18.33293,-9.702325 -28.37305,-9.707031 z M 90.640625,31.378906 c -0.460628,31.291987 -1.205928,62.579769 -2.419922,93.851564 -7.082216,182.43393 -27.584117,369.77527 2.171875,556.6914 3.61579,22.71306 8.035238,45.29222 13.115232,67.72266 l -54.015623,16.7793 C 47.002794,738.2431 45.268751,709.99419 44.658203,681.71094 40.672041,497.05432 77.92742,307.14556 59.923828,113.19922 57.654636,88.754015 54.48207,64.393104 50.445312,40.177734 Z" id="path26411" /></svg:g></svg:svg>
